X:1
T:Title
%%score { ( 1 4 ) | ( 2 3 ) }
L:1/8
M:3/4
K:Eb
V:1 treble nm="Grand Piano"
V:4 treble 
V:2 bass 
V:3 bass 
V:1
 z2 z2 G2 | B4 c2 | B2 G2 E2 | F2 E2 [B,DF]2 | G4 G2 | B4 c2 | B2 G2 G2 | F2 d2 c2 |[M:2/4] [DB]4 | %9
[M:1/4] B2 |[M:3/4] c2 A2 c2 | B2 G2 B2 | B2 z2 [B,DA]2 | [B,EG]4 [B,EG]2 | F2 [=EG]2 [_E=A]2 | %15
 [DB]2 [Ge]2 [Fd]2 | d2 B2 c2 |[M:2/4] [DB]4 |[M:1/4] [DB]2 |[M:3/4] B4 c2 | B2 G2 B2 | e2 d2 c2 | %22
 B4 B2 | c4 [Ad]2 | [Ge]2 [EGB]2 [B,EG]2 | G2 z2 z2 |[M:2/4] [DF]4 |[M:1/4] [DF]2 |[M:3/4] G4 G2 | %29
 A2 d2 c2 | B2 e2 d2 | c4 [Ad]2 | [Ge]2 [Bd]2 [EAc]2 | [EGB]2 [B,EG]2 [=A,E]2 | [B,EG]4 [A,DF]2 | %35
[M:2/4] [G,E]4 |] %36
V:2
 z2 z2 [E,B,E]2 | [E,G,E]4 [E,A,E]2 | [E,G,E]2 [E,B,E]2 [G,B,]2 | D2 z2 z2 | [E,B,E]4 [E,B,E]2 | %5
 [E,G,E]4 [E,A,E]2 | [E,G,E]2 [E,B,E]2 [E,B,E]2 | D2 z2 z2 |[M:2/4] [B,,B,]4 |[M:1/4] [E,G,E]2 | %10
[M:3/4] z2 C2 [A,E]2 | [E,G,E]2 [E,B,E]2 [E,G,E]2 | z2[K:treble] c2[K:bass] B,,2 | E,4 E,2 | %14
 D,2 _D,2 [C,F,]2 | [B,,F,]2 [B,,B,]2 [B,,B,]2 | B,2 G,2 [F,=A,E]2 |[M:2/4] [B,,B,]4 | %18
[M:1/4] [B,,A,]2 |[M:3/4] [E,G,E]4 [E,A,E]2 | [E,G,E]2 [E,B,E]2 [E,G,E]2 | C2 B,2 [E,A,E]2 | %22
 [E,G,E]4 [G,B,E]2 | [A,E]4 [F,B,]2 | [E,B,]2 E,2 E,2 | z2 F2 F,2 |[M:2/4] [B,,B,]4 | %27
[M:1/4] [B,,B,]2 |[M:3/4] [E,B,E]4 [E,B,E]2 | [F,B,D]2[K:treble] [A,B,F]2 [F,A,D]2 | %30
 [G,B,E]4 [G,=B,F]2 | [A,CE]4[K:bass] [F,B,]2 | B,2 E2 E,2 | E,2 E,2 C,2 | B,,4 B,,2 | %35
[M:2/4] E,4 |] %36
V:3
 x6 | x6 | x6 | B,2- [B,C]2 B,,2 | x6 | x6 | x6 | [F,B,]2- [F,B,F]2 [F,=A,E]2 |[M:2/4] x4 | %9
[M:1/4] x2 |[M:3/4] [A,E]4 z2 | x6 | [B,,F,]4[K:treble][K:bass] z2 | x6 | x6 | x6 | C,4 z2 | %17
[M:2/4] x4 |[M:1/4] x2 |[M:3/4] x6 | x6 | [E,E]4 z2 | x6 | x6 | x6 | C,4 z2 |[M:2/4] x4 | %27
[M:1/4] x2 |[M:3/4] x6 | x2[K:treble] x4 | x6 | x4[K:bass] x2 | E,4 z2 | x6 | x6 |[M:2/4] x4 |] %36
V:4
 x6 | x6 | x6 | x6 | x6 | x6 | x6 | x6 |[M:2/4] x4 |[M:1/4] x2 |[M:3/4] x6 | x6 | D4 z2 | x6 | %14
 B,4 z2 | x6 | =E4 z2 |[M:2/4] x4 |[M:1/4] x2 |[M:3/4] x6 | x6 | x6 | x6 | x6 | x6 | %25
 [=A,E]4 [A,EG]2 |[M:2/4] x4 |[M:1/4] x2 |[M:3/4] x6 | x6 | x6 | x6 | x6 | x6 | x6 |[M:2/4] x4 |] %36

